!! 00000] TT[WS
!!!OTL: Nao wugeng
!!!ARE: Asia, China, Shanxi Linxian
!! Ethnic Group: Han
!! WII, 122
!!!SCT: J0587
!!!YEM: Copyright 1995, estate of Helmut Schaffrath.
**kern
*ICvox
*Ivox
*M2/4
*k[f#c#g#]
*A:
{8b
4b
8ee
=1
8cc#
8b
4a
=2
8a
8b
8a
8f#
=3
4.e
8f#}
=4
{8a
8a
8a
16a
16b
=5
8cc#
8ee
8cc#
8b
=6
8a
8b
8a
8f#
=7
2e}
=8
{4ee
4cc#
=9
8b
4ee
8b
=10
4cc#
8e
8f#
=11
2a}
=12
{8cc#
4b
8a
=13
8e
8f#
8a
8a
=14
8f#
8e
8c#
8B
=15
2A}
=16
{8.a
16f#
8e
8f#
=17
2a
=18
8cc#
4b
8a
=19
8e
8f#
8a
8a
=20
8f#
8e
8c#
8B
=21
2A}
==
!!!AGN: Xiaodiao. Qingge, Aisu
!!!ONB: ESAC (Essen Associative Code) Database: CHINA
!!!AMT: simple duple
!!!AIN: vox
!!!EED: Helmut Schaffrath
!!!EEV: 1.0
*-
